assets/spark/icons/LockOutline.svg

<svg viewBox="0 0 24 24" xmlns="http://www.w3.org/2000/svg">
    <path d="M17.5928 21.9998H6.40715C5.07733 21.9998 4 20.9331 4 19.6164V11.3081C4 10.0998 4.91741 9.09142 6.09574 8.94142V7.84142C6.09574 6.28309 6.71015 4.80809 7.82115 3.70809C8.94056 2.60809 10.4219 1.99976 12.0042 1.99976C13.5865 1.99976 15.0594 2.60809 16.1789 3.70809C17.2983 4.81642 17.9043 6.28309 17.9043 7.84142V8.94142C19.0826 9.09142 20 10.0914 20 11.3081V19.6164C20 20.9331 18.9227 21.9998 17.5928 21.9998ZM6.40715 10.9248C6.19674 10.9248 6.01999 11.0998 6.01999 11.3081V19.6164C6.01999 19.8248 6.19674 19.9998 6.40715 19.9998H17.5928C17.8033 19.9998 17.98 19.8248 17.98 19.6164V11.3081C17.98 11.0998 17.8033 10.9248 17.5928 10.9248H6.40715ZM8.11573 8.92476H15.8843V7.84976C15.8843 6.82476 15.4803 5.85809 14.748 5.13309C14.0158 4.40809 13.0395 4.00809 12.0042 4.00809C10.969 4.00809 9.99264 4.40809 9.26039 5.13309C8.52814 5.85809 8.12415 6.82476 8.12415 7.84976V8.92476H8.11573ZM11.9116 17.6664C10.8006 17.6664 9.89164 16.7664 9.89164 15.6664C9.89164 14.5664 10.8006 13.6664 11.9116 13.6664C13.0226 13.6664 13.9316 14.5664 13.9316 15.6664C13.9316 16.7664 13.0226 17.6664 11.9116 17.6664Z"/>
</svg>

<svg viewBox="0 0 24 24" xmlns="http://www.w3.org/2000/svg">
  <path d="m17.59,22H6.41c-1.33,0-2.41-1.07-2.41-2.38v-8.31c0-1.21.92-2.22,2.1-2.37v-1.1c0-1.56.61-3.03,1.73-4.13,1.12-1.1,2.6-1.71,4.18-1.71s3.06.61,4.17,1.71c1.12,1.11,1.73,2.58,1.73,4.13v1.1c1.18.15,2.1,1.15,2.1,2.37v8.31c0,1.32-1.08,2.38-2.41,2.38ZM6.41,10.93c-.21,0-.39.18-.39.38v8.31c0,.21.18.38.39.38h11.19c.21,0,.39-.17.39-.38v-8.31c0-.21-.18-.38-.39-.38H6.41Zm1.71-2h7.77v-1.07c0-1.03-.4-1.99-1.14-2.72-.73-.72-1.71-1.12-2.74-1.12s-2.01.4-2.74,1.12c-.73.72-1.14,1.69-1.14,2.72v1.07h0Zm3.8,8.74c-1.11,0-2.02-.9-2.02-2s.91-2,2.02-2,2.02.9,2.02,2-.91,2-2.02,2Z"/>
</svg>
